Adwaita++-Light/panel/22/org.sparkleshare.SparkleShare-syncing-error.svg

<svg height="22" width="22" xmlns="http://www.w3.org/2000/svg">
  <path d="m4.1425781 3s-1.1425781.04269-1.1425781 1.1855469v12.6718751s-.0002789 1.142578 1.1425781 1.142578h8.2812499a5 5 0 0 1 -.423828-2 5 5 0 0 1 .017578-.34375l-1.017578-.662109-1.8925781 1.234375c-.782532.512473-1.8157065-.188985-1.5390625-1.044922l.6699218-2.169922-1.8398437-1.304688c-.762136-.5395-.3672864-1.676829.5878906-1.693359l2.3066407-.0429688.7578122-2.3417968c.144719-.3909099.544846-.6476257.986328-.6328125.414219.014758.77635.2660006.91211.6328125l.757812 2.3417968 2.308594.0429688c.669504.012777 1.050788.574638.962891 1.095703a5 5 0 0 1 1.021484-.111328 5 5 0 0 1 2 .419922v-5.248047c0-1.1428572-1.142578-1.1425781-1.142578-1.1425781h-5.714844l-2.2851561-2.0292969zm6.8457029 4.9785156-.757812 2.3417964c-.142852.385434-.506995.644244-.917969.652344l-2.1679688.041016 1.671875 1.185547c.3562391.252723.5072789.707404.3730469 1.123047l-.6367187 2.068359c.0046-.0024.0014125.0041.0078125 0l1.8945311-1.234375c.331831-.216172.759966-.216172 1.091797 0l.660156.429688a5 5 0 0 1 .597657-1.298829c-.115009-.405949.032633-.842244.378906-1.08789l1.671875-1.185547-2.166016-.041016c-.411693-.0073-.77681-.266255-.919922-.652344l-.755859-2.3417964h-.001953c.01242.03376.013584.0203781-.009766.0175782-.02307.00225-.026262.0164318-.013672-.0175782z" fill="#444"/>
  <path d="m17 12c-2.2091 0-4 1.7909-4 4s1.7909 4 4 4 4-1.7909 4-4-1.7909-4-4-4zm-1 1h2v3h-2zm1 4a1 1 0 0 1 1 1 1 1 0 0 1 -1 1 1 1 0 0 1 -1-1 1 1 0 0 1 1-1z" fill="#4285f4"/>
</svg>

<svg xmlns="http://www.w3.org/2000/svg" width="22" height="22" version="1.1">
 <defs>
  <style id="current-color-scheme" type="text/css">
   .ColorScheme-Text { color:#444444; } .ColorScheme-Highlight { color:#4285f4; }
  </style>
 </defs>
 <path style="fill:currentColor" class="ColorScheme-Text" d="M 4.1425781 3 C 4.1425781 3 3 3.04269 3 4.1855469 L 3 16.857422 C 3 16.857422 2.9997211 18 4.1425781 18 L 12.423828 18 A 5 5 0 0 1 12 16 A 5 5 0 0 1 12.017578 15.65625 L 11 14.994141 L 9.1074219 16.228516 C 8.3248899 16.740989 7.2917154 16.039531 7.5683594 15.183594 L 8.2382812 13.013672 L 6.3984375 11.708984 C 5.6363015 11.169484 6.0311511 10.032155 6.9863281 10.015625 L 9.2929688 9.9726562 L 10.050781 7.6308594 C 10.1955 7.2399495 10.595627 6.9832337 11.037109 6.9980469 C 11.451328 7.0128049 11.813459 7.2640475 11.949219 7.6308594 L 12.707031 9.9726562 L 15.015625 10.015625 C 15.685129 10.028402 16.066413 10.590263 15.978516 11.111328 A 5 5 0 0 1 17 11 A 5 5 0 0 1 19 11.419922 L 19 6.171875 C 19 5.0290178 17.857422 5.0292969 17.857422 5.0292969 L 12.142578 5.0292969 L 9.8574219 3 L 4.1425781 3 z M 10.988281 7.9785156 L 10.230469 10.320312 C 10.087617 10.705746 9.723474 10.964556 9.3125 10.972656 L 7.1445312 11.013672 L 8.8164062 12.199219 C 9.1726453 12.451942 9.3236851 12.906623 9.1894531 13.322266 L 8.5527344 15.390625 C 8.5573344 15.388225 8.5541469 15.394725 8.5605469 15.390625 L 10.455078 14.15625 C 10.786909 13.940078 11.215044 13.940078 11.546875 14.15625 L 12.207031 14.585938 A 5 5 0 0 1 12.804688 13.287109 C 12.689679 12.88116 12.837321 12.444865 13.183594 12.199219 L 14.855469 11.013672 L 12.689453 10.972656 C 12.27776 10.965356 11.912643 10.706401 11.769531 10.320312 L 11.013672 7.9785156 L 11.011719 7.9785156 C 11.024139 8.0122756 11.025303 7.9988937 11.001953 7.9960938 C 10.978883 7.9983438 10.975691 8.0125256 10.988281 7.9785156 z"/>
 <path style="fill:currentColor" class="ColorScheme-Highlight" d="M 17 12 C 14.7909 12 13 13.7909 13 16 C 13 18.2091 14.7909 20 17 20 C 19.2091 20 21 18.2091 21 16 C 21 13.7909 19.2091 12 17 12 z M 16 13 L 18 13 L 18 16 L 16 16 L 16 13 z M 17 17 A 1 1 0 0 1 18 18 A 1 1 0 0 1 17 19 A 1 1 0 0 1 16 18 A 1 1 0 0 1 17 17 z"/>
</svg>
